static/assets/uswds/img/material-icons/airplanemode_inactive.svg

<svg xmlns="http://www.w3.org/2000/svg" width="24" height="24" viewBox="0 0 24 24"><path d="M10.5 7.67V3.5c0-.83.67-1.5 1.5-1.5s1.5.67 1.5 1.5V9l8.5 5v2l-4.49-1.32-7.01-7.01zm9.28 14.94 1.41-1.41-7.69-7.7-3.94-3.94-6.75-6.75-1.42 1.41 6.38 6.38L2 14v2l8.5-2.5V19L8 20.5V22l4-1 4 1v-1.5L13.5 19v-2.67l6.28 6.28z"/></svg>

<svg xmlns="http://www.w3.org/2000/svg" enable-background="new 0 0 24 24" height="24" viewBox="0 0 24 24" width="24"><g><path d="M10.5,7.67V3.5C10.5,2.67,11.17,2,12,2c0.83,0,1.5,0.67,1.5,1.5V9l8.5,5v2l-4.49-1.32L10.5,7.67z M19.78,22.61l1.41-1.41 L13.5,13.5L9.56,9.56L2.81,2.81L1.39,4.22l6.38,6.38L2,14v2l8.5-2.5V19L8,20.5L8,22l4-1l4,1l0-1.5L13.5,19v-2.67L19.78,22.61z"/><path d="M0,0h24v24H0V0z" fill="none"/></g></svg>
